fs/text_grammar_wand_20_regular.svg

<svg viewBox="0 0 20 20" fill="none" xmlns="http://www.w3.org/2000/svg" height="1em" width="1em">
  <path d="M2.5 5C2.22386 5 2 5.22386 2 5.5C2 5.77614 2.22386 6 2.5 6H17.5C17.7761 6 18 5.77614 18 5.5C18 5.22386 17.7761 5 17.5 5H2.5ZM2.5 8C2.22386 8 2 8.22386 2 8.5C2 8.77614 2.22386 9 2.5 9H11.5C11.7761 9 12 8.77614 12 8.5C12 8.22386 11.7761 8 11.5 8H2.5ZM2.5 11C2.22386 11 2 11.2239 2 11.5C2 11.7761 2.22386 12 2.5 12H9.38312C9.14997 11.7346 9.01013 11.3871 9.01013 11.0101L9.01017 11H2.5ZM2.5 14H8.87729L7.8764 15H2.5C2.22386 15 2 14.7761 2 14.5C2 14.2239 2.22386 14 2.5 14ZM14 7C14.2525 7 14.4654 7.18829 14.4963 7.43892L14.5937 8.23046C14.7338 9.36907 15.6309 10.2662 16.7695 10.4063L17.5611 10.5037C17.8117 10.5346 18 10.7475 18 11C18 11.2525 17.8117 11.4654 17.5611 11.4963L16.7695 11.5937C15.6309 11.7338 14.7338 12.6309 14.5937 13.7695L14.4963 14.5611C14.4654 14.8117 14.2525 15 14 15C13.7475 15 13.5346 14.8117 13.5037 14.5611L13.4063 13.7695C13.2662 12.6309 12.3691 11.7338 11.2305 11.5937L10.4389 11.4963C10.1883 11.4654 10 11.2525 10 11C10 10.7475 10.1883 10.5346 10.4389 10.5037L11.2305 10.4063C12.3691 10.2662 13.2662 9.36907 13.4063 8.23046L13.5037 7.43892C13.5346 7.18829 13.7475 7 14 7ZM14 9.59736C13.6776 10.1897 13.1897 10.6776 12.5974 11C13.1897 11.3224 13.6776 11.8103 14 12.4026C14.3224 11.8103 14.8103 11.3224 15.4026 11C14.8103 10.6776 14.3224 10.1897 14 9.59736ZM11.853 13.1466C12.0482 13.3419 12.0481 13.6585 11.8528 13.8537L7.85343 17.8501C7.65809 18.0453 7.34151 18.0452 7.14632 17.8499C6.95113 17.6545 6.95124 17.338 7.14657 17.1428L11.1459 13.1463C11.3413 12.9511 11.6579 12.9512 11.853 13.1466Z" fill="#212121"/>
</svg>

<svg viewBox="0 0 20 20" fill="none" xmlns="http://www.w3.org/2000/svg" height="1em" width="1em">
  <path d="M2.5 5a.5.5 0 0 0 0 1h15a.5.5 0 0 0 0-1h-15Zm0 3a.5.5 0 0 0 0 1h9a.5.5 0 0 0 0-1h-9Zm0 3a.5.5 0 0 0 0 1h6.883a1.496 1.496 0 0 1-.373-.99V11H2.5Zm0 3h6.377l-1 1H2.5a.5.5 0 0 1 0-1ZM14 7a.5.5 0 0 1 .496.439l.098.791a2.5 2.5 0 0 0 2.176 2.176l.791.098a.5.5 0 0 1 0 .992l-.791.098a2.5 2.5 0 0 0-2.176 2.176l-.098.791a.5.5 0 0 1-.992 0l-.098-.791a2.5 2.5 0 0 0-2.176-2.176l-.791-.098a.5.5 0 0 1 0-.992l.791-.098a2.5 2.5 0 0 0 2.176-2.176l.098-.791A.5.5 0 0 1 14 7Zm0 2.597A3.507 3.507 0 0 1 12.597 11c.593.322 1.08.81 1.403 1.403.322-.593.81-1.08 1.403-1.403A3.507 3.507 0 0 1 14 9.597Zm-2.147 3.55a.5.5 0 0 1 0 .707l-4 3.996a.5.5 0 0 1-.706-.707l3.999-3.997a.5.5 0 0 1 .707 0Z" fill="#212121"/>
</svg>
